packages/tokens/icons/windowExpand/size32Px.svg

<svg viewBox="0 0 32 32" fill="none" xmlns="http://www.w3.org/2000/svg" width="1em" height="1em"><rect x="2.5" y="4.5" width="27" height="23" rx="1.5" stroke="currentColor"/><path d="M3 8.5L29 8.5" stroke="currentColor"/><circle cx="4.5" cy="6.5" r="0.25" stroke="currentColor" stroke-width="0.5"/><circle cx="6.5" cy="6.5" r="0.25" stroke="currentColor" stroke-width="0.5"/><circle cx="8.5" cy="6.5" r="0.25" stroke="currentColor" stroke-width="0.5"/><path d="M17.5 11.5H21.5M21.5 11.5V15.5M21.5 11.5L17.5 15.5" stroke="currentColor" stroke-linecap="round" stroke-linejoin="round"/><path d="M14.5 22.5H10.5M10.5 22.5V18.5M10.5 22.5L14.5 18.5" stroke="currentColor" stroke-linecap="round" stroke-linejoin="round"/></svg>

<svg xmlns="http://www.w3.org/2000/svg" fill="none" viewBox="0 0 32 32" width="1em" height="1em"><rect width="27" height="23" x="2.5" y="4.5" stroke="currentColor" rx="1.5"/><path stroke="currentColor" d="M3 8.5h26"/><circle cx="4.5" cy="6.5" r=".25" stroke="currentColor" stroke-width=".5"/><circle cx="6.5" cy="6.5" r=".25" stroke="currentColor" stroke-width=".5"/><circle cx="8.5" cy="6.5" r=".25" stroke="currentColor" stroke-width=".5"/><path stroke="currentColor" stroke-linecap="round" stroke-linejoin="round" d="M17.5 11.5h4m0 0v4m0-4-4 4m-3 7h-4m0 0v-4m0 4 4-4"/></svg>
